X: 9
T: St. Anne's Reel
P: piffero primo a0460
O: de Greg Rice
F: http://ancients.sudburymuster.org/mus/ssp/pdf/involuntaryF.pdf
Z: 2019 John Chambers <jc:trillian.mit.edu>
M: 2/4
L: 1/16
K: D
Ad |\
f2fg fedB | AFAB A3A | BABd B2AG | AFAB A2de | f2fg fedB |
AFAB A3d | BABd cAce | d2d2 d2 :: ag | fdfa fdfa | aggf g2gf |
edcB ABce | baa^g a2a=g | fdfa fdfa | aggf g2gf | edcB Aceg | f2d2 d2 :|

% %sep 1 1 200
% %center - - - - - - - - - -
% Whatever we want at the bottom of each set belongs here.
